X: 1692
T: The Flowers of Spring
M:4/4
L:1/8
B:O'Neill's 1692
N:"collected by McFadden"
K:D
d-B \
| (3ABA FADFA,E | (3DED FAdfab | afdf gfec | dcBA GFEd |
| AdFA DFA,E | (3DED FA dfab | afdA CEAG | F2D2D2 :|
|: F>G \
| A>d{e}(3dcd f>d {e}(3dcd | baga f>d {e}(3dcd | (3Acd F>AdAFA | GFED CEA,2 |
| a>d(3ddd f>d(3ddd | baga f>d{e}(3dcd | (3Acd FDCEAG | F2D2D2 :|


